pics/icons/22x22/items/page.svg

<svg width="22" height="22" xmlns="http://www.w3.org/2000/svg">
 <rect x=".5" y=".5" width="18" height="21" fill="#eeeeec" stroke="#888a85" stroke-linecap="round" stroke-linejoin="round"/>
 <g fill="none">
  <rect x="1.5" y="1.5" width="16" height="19" stroke="#fff" stroke-linecap="square"/>
  <g stroke="#888a85">
   <path d="M3 3.506h8m1 .037h4M3 5.502h3m-3 9.992h8m1 .017h3M3 17.5h6m1 .025h4M7 5.517h4m1 0h4M8 7.516h8M3 7.49h4M3 9.523h3m1-.053h3m1 .032h5M3 11.496h3m1 .015h4m1 0h4M8 13.51h8m-13-.026h4"/>
  </g>
 </g>
</svg>

<svg width="22" height="22" xmlns="http://www.w3.org/2000/svg"><path fill="#eeeeec" stroke="#888a85" stroke-linecap="round" stroke-linejoin="round" d="M.5.5h18v21H.5z"/><g fill="none"><path stroke="#fff" stroke-linecap="square" d="M1.5 1.5h16v19h-16z"/><g stroke="#888a85"><path d="M3 3.506h8M12 3.543h4M3 5.502h3M3 15.494h8M12 15.511h3M3 17.5h6M10 17.525h4M7 5.517h4M12 5.517h4M8 7.516h8"/><g><path d="M3 7.49h4M3 9.523h3M7 9.47h3M11 9.502h5M3 11.496h3M7 11.511h4M12 11.511h4"/></g><path d="M8 13.51h8M3 13.484h4"/></g></g></svg>
